X:1
T:Title
%%score ( 1 2 ) ( 3 4 )
L:1/8
Q:1/4=102
M:4/4
K:Bb
V:1 treble nm="Grand Piano, Unnamed-000"
V:2 treble 
V:3 bass nm="Choir Pad, Face to Face"
V:4 bass 
V:1
 [DF]3 [DF] [EG][DF][B,D][DB] | [EB]4 [EA]4 | [Ec]3 [EB] [EA][EG][EF][EG] | [DF]8 | %4
w: By~Carrie~Elizabeth~Ellis~Breck,~1898 * * * * *||||
 [DF]3 [DF] [EG][DF][B,D][DB] | [Ec]4 [EG]2 [_DG][DG] | [DF]2 [Fd]2 [Fd]3 [Ec] | [DB]8 | %8
w: ||||
 [Ec]3 [Ec] [Fd][Ec][DB][CA] | [DB]4 [Fd]4 | [Fc]3 [Fd] [Fc][=EB][EA][EG] | F8 | %12
w: ||||
 [Fd]3 [Fd] [Ge][Fd][Ec][DB] | [Ec]4 [Ge]2 [_DG][DG] | [DF]2 [Fd]2 [Fd]3 [Ec] | [DB]8 |] %16
w: ||||
V:2
 x8 | x8 | x8 | x8 | x8 | x8 | x8 | x8 | x8 | x8 | x8 | z2 D2 E4 | x8 | x8 | x8 | x8 |] %16
V:3
 [B,,B,]3 [B,,B,] [B,,B,][B,,B,][B,,F,][B,,F,] | F,2 z2 z4 | [F,A,]3 [F,C] [F,C][F,C][F,A,][F,A,] | %3
 [B,,B,]8 | [B,,B,]3 [B,,B,] [B,,B,][B,,B,][B,,F,][B,,F,] | [E,G,]4 [E,B,]2 [=E,B,][E,B,] | %6
 [F,B,]2 [F,B,]2 [F,B,]3 [F,A,] | [B,,F,]8 | [F,A,]3 [F,A,] [F,B,][F,A,]F,F, | [B,,F,]4 [B,,B,]4 | %10
 [C,A,]3 [C,B,] [C,A,][C,G,][C,C][C,G,] | A,2 B,2 C4 | %12
 [B,,B,]3 [B,,B,] [B,,B,][B,,B,][B,,F,][B,,F,] | [E,G,]4 [E,B,]2 [=E,B,][E,B,] | %14
 [F,B,]2 [F,B,]2 [F,B,]3 [F,A,] | [B,,F,]8 |] %16
V:4
 x8 | C,2- [C,G,]2 F,4 | x8 | x8 | x8 | x8 | x8 | x8 | x8 | x8 | x8 | F,8 | x8 | x8 | x8 | x8 |] %16

